X:223
T:The Liffey Banks
Z:robin.beech@mcgill.ca
R:reel
M:4/4
L:1/8
K:G
G3F GBdB | cBcd g3d | B2dB ABGE | DEGB AGEF |
G3F GBdB | cBcd g3d | B2dB ABGE |1 DEGB AGEF :|2 DEGB BAGB |:
gage d2Bd | gabg agef | g2fg edBd | gabg agef  |
gage d2Bd | ga2g a2ef | gabg efge |1 dedc BAGB :|2 dedc BAGF |]
